X: 31788
T: Patrick's Park
R: reel
M: 4/4
K: Dmajor
E|"D"D3E "Bm"FABc|"D"dfed "A"cBAc|"G"d2BG "D"FGAB|"A"ABcA GECE|
"D"D3E "Bm"FABc|"D"dfec defg|"F#m"afec "Bm"BcdB|"A7"AGFE "D"D3:|
c|"D"dcdf "Em"edBc|"D"defg "A7"agec|"D"d2fd adfd|"Em"B2eB "A7" gfec|
"D"dcdf "Em"edBc|"D"defg "Bm7"afbf|"G"gfeg "Bm"fedB|"A"ABce "D"d3:|

